images/icons/ts-icon-pwa-144x144.svg

<svg width="144" height="144" version="1.1" viewBox="0 0 120 120" xmlns="http://www.w3.org/2000/svg" xmlns:xlink="http://www.w3.org/1999/xlink">
 <defs>
  <path id="b1lo7zuvLE" d="m110.55 1.33c4.59 0 8.3 3.72 8.3 8.3v100.74c0 4.58-3.71 8.3-8.3 8.3h-101.1c-4.59 0-8.3-3.72-8.3-8.3v-100.74c0-4.58 3.71-8.3 8.3-8.3h101.1z"/>
  <path id="b3ZN88Cv4g" d="m96.8 14.77 0.12 0.01 0.24 0.06 0.12 0.04 0.11 0.04 0.12 0.05 0.12 0.06 0.11 0.06 0.11 0.07 0.11 0.08 0.11 0.07 0.11 0.09 0.1 0.09 0.11 0.09 0.1 0.1 0.09 0.1 0.1 0.11 0.18 0.22 0.08 0.12 0.09 0.12 0.08 0.12 0.21 0.39 0.18 0.42 0.05 0.14 0.04 0.14 0.05 0.14 0.06 0.3 0.03 0.14 0.02 0.15 0.02 0.3v0.15 83.8 0.15 0.14l-0.02 0.15-0.01 0.15-0.02 0.15-0.03 0.15-0.03 0.14-0.03 0.15-0.04 0.14-0.05 0.14-0.04 0.14-0.06 0.14-0.05 0.13-0.12 0.26-0.14 0.26-0.08 0.12-0.08 0.11-0.08 0.12-0.18 0.22-0.09 0.1-0.1 0.1-0.2 0.18-0.22 0.16-0.22 0.14-0.12 0.07-0.13 0.05-0.12 0.05-0.13 0.05-0.13 0.04-0.13 0.03-0.28 0.04-0.28 0.02h-70.73l-0.36-0.03-0.12-0.02-0.24-0.06-0.12-0.04-0.11-0.04-0.12-0.05-0.11-0.05-0.12-0.06-0.11-0.06-0.1-0.07-0.22-0.16-0.1-0.08-0.2-0.18-0.18-0.2-0.18-0.22-0.16-0.24-0.07-0.12-0.08-0.13-0.06-0.13-0.07-0.14-0.06-0.14-0.05-0.14-0.1-0.3-0.04-0.16-0.03-0.15-0.04-0.17-0.02-0.16-0.04-0.34v-0.18l-0.01-0.17v-83.8l0.01-0.15v-0.15l0.04-0.3 0.02-0.14 0.04-0.15 0.03-0.15 0.04-0.14 0.15-0.42 0.06-0.14 0.07-0.14 0.06-0.13 0.08-0.13 0.07-0.13 0.16-0.24 0.09-0.12 0.27-0.33 0.2-0.2 0.1-0.09 0.22-0.18 0.1-0.07 0.11-0.08 0.12-0.07 0.11-0.06 0.12-0.06 0.11-0.05 0.24-0.08 0.24-0.06 0.12-0.01 0.12-0.02h0.12 70.73 0.12l0.12 0.02zm-70.97 87.77h70.73v-67.84h-70.73v67.84zm25.72-71.83h45.01v-11.97h-45.01v11.97zm-25.72 0h22.5v-11.97h-22.5v11.97z"/>
  <path id="g4Sq3GPCC" d="m30.65 22.73c-0.89 0-1.61 0.89-1.61 2 0 1.1 0.72 1.99 1.61 1.99s1.61-0.89 1.61-1.99c0-1.11-0.72-2-1.61-2z"/>
  <path id="aXQuGuzc" d="m37.08 22.73c-0.89 0-1.61 0.89-1.61 2 0 1.1 0.72 1.99 1.61 1.99s1.61-0.89 1.61-1.99c0-1.11-0.72-2-1.61-2z"/>
  <path id="c1goEhiqVm" d="m43.51 22.73c-0.89 0-1.61 0.89-1.61 2 0 1.1 0.72 1.99 1.61 1.99s1.61-0.89 1.61-1.99c0-1.11-0.72-2-1.61-2z"/>
  <path id="a1pU3UvUPx" d="m30.65 46.67c-0.96 0-1.61-0.8-1.61-1.99 0-1.2 0.65-2 1.61-2h16.08c0.96 0 1.6 0.8 1.6 2 0 1.19-0.64 1.99-1.6 1.99h-16.08z"/>
  <path id="dB1cPAPO9" d="m30.65 58.64c-0.96 0-1.61-0.79-1.61-1.99s0.65-2 1.61-2h25.72c0.97 0 1.61 0.8 1.61 2s-0.64 1.99-1.61 1.99h-25.72z"/>
  <path id="bSzcrl57q" d="m53.16 46.67c-0.97 0-1.61-0.8-1.61-1.99 0-1.2 0.64-2 1.61-2h12.86c0.96 0 1.6 0.8 1.6 2 0 1.19-0.64 1.99-1.6 1.99h-12.86z"/>
  <path id="d8IVlTzke" d="m62.8 58.64c-0.96 0-1.61-0.79-1.61-1.99s0.65-2 1.61-2h6.43c0.97 0 1.61 0.8 1.61 2s-0.64 1.99-1.61 1.99h-6.43z"/>
  <path id="a2NX5lXxW0" d="m30.65 70.61c-0.96 0-1.61-0.79-1.61-1.99s0.65-2 1.61-2h6.43c0.97 0 1.61 0.8 1.61 2s-0.64 1.99-1.61 1.99h-6.43z"/>
  <path id="a69UUHqHL9" d="m46.73 70.61c-0.97 0-1.61-0.79-1.61-1.99s0.64-2 1.61-2h3.21c0.97 0 1.61 0.8 1.61 2s-0.64 1.99-1.61 1.99h-3.21z"/>
  <path id="bn8SOyAT4" d="m75.66 58.64c-0.96 0-1.61-0.79-1.61-1.99s0.65-2 1.61-2h9.65c0.96 0 1.6 0.8 1.6 2s-0.64 1.99-1.6 1.99h-9.65z"/>
 </defs>
 <use fill="#ffffff" fill-opacity="0" xlink:href="#b1lo7zuvLE"/>
 <use fill-opacity="0" stroke="#a434b7" stroke-width="2" xlink:href="#b1lo7zuvLE"/>
 <use fill="#000000" fill-opacity="0" xlink:href="#b3ZN88Cv4g"/>
 <use fill-opacity="0" stroke="#a434b7" xlink:href="#b3ZN88Cv4g"/>
 <use fill="#a434b7" xlink:href="#g4Sq3GPCC"/>
 <use fill-opacity="0" stroke="#000000" stroke-opacity="0" xlink:href="#g4Sq3GPCC"/>
 <use fill="#a434b7" xlink:href="#aXQuGuzc"/>
 <use fill-opacity="0" stroke="#000000" stroke-opacity="0" xlink:href="#aXQuGuzc"/>
 <use fill="#a434b7" xlink:href="#c1goEhiqVm"/>
 <use fill-opacity="0" stroke="#000000" stroke-opacity="0" xlink:href="#c1goEhiqVm"/>
 <use fill="#a434b7" xlink:href="#a1pU3UvUPx"/>
 <use fill="#a434b7" xlink:href="#dB1cPAPO9"/>
 <use fill="#a434b7" xlink:href="#bSzcrl57q"/>
 <use fill="#a434b7" xlink:href="#d8IVlTzke"/>
 <use fill="#a434b7" xlink:href="#a2NX5lXxW0"/>
 <use fill="#a434b7" xlink:href="#a69UUHqHL9"/>
 <use fill="#a434b7" xlink:href="#bn8SOyAT4"/>
</svg>

<?xml version="1.0" encoding="UTF-8" standalone="no"?>
<!DOCTYPE svg PUBLIC "-//W3C//DTD SVG 1.1//EN" "http://www.w3.org/Graphics/SVG/1.1/DTD/svg11.dtd">
<svg preserveAspectRatio="xMidYMid meet" viewBox="0 0 120 120" width="144" height="144"><defs><path d="M110.55 1.33C115.14 1.33 118.85 5.05 118.85 9.63C118.85 31.44 118.85 88.56 118.85 110.37C118.85 114.95 115.14 118.67 110.55 118.67C88.67 118.67 31.33 118.67 9.45 118.67C4.86 118.67 1.15 114.95 1.15 110.37C1.15 88.56 1.15 31.44 1.15 9.63C1.15 5.05 4.86 1.33 9.45 1.33C31.33 1.33 88.67 1.33 110.55 1.33Z" id="b1lo7zuvLE"></path><path d="M96.8 14.77L96.92 14.78L97.04 14.81L97.16 14.84L97.28 14.88L97.39 14.92L97.51 14.97L97.63 15.03L97.74 15.09L97.85 15.16L97.96 15.24L98.07 15.31L98.18 15.4L98.28 15.49L98.39 15.58L98.49 15.68L98.58 15.78L98.68 15.89L98.77 16L98.86 16.11L98.94 16.23L99.03 16.35L99.11 16.47L99.18 16.6L99.25 16.73L99.32 16.86L99.38 17L99.44 17.14L99.5 17.28L99.55 17.42L99.59 17.56L99.64 17.7L99.67 17.85L99.7 18L99.73 18.14L99.75 18.29L99.76 18.44L99.77 18.59L99.77 18.74L99.77 102.54L99.77 102.69L99.77 102.83L99.75 102.98L99.74 103.13L99.72 103.28L99.69 103.43L99.66 103.57L99.63 103.72L99.59 103.86L99.54 104L99.5 104.14L99.44 104.28L99.39 104.41L99.33 104.54L99.27 104.67L99.2 104.8L99.13 104.93L99.05 105.05L98.97 105.16L98.89 105.28L98.8 105.39L98.71 105.5L98.62 105.6L98.52 105.7L98.42 105.79L98.32 105.88L98.21 105.96L98.1 106.04L97.99 106.11L97.88 106.18L97.76 106.25L97.63 106.3L97.51 106.35L97.38 106.4L97.25 106.44L97.12 106.47L96.98 106.49L96.84 106.51L96.7 106.52L96.56 106.53L25.83 106.53L25.71 106.52L25.59 106.51L25.47 106.5L25.35 106.48L25.23 106.45L25.11 106.42L24.99 106.38L24.88 106.34L24.76 106.29L24.65 106.24L24.53 106.18L24.42 106.12L24.32 106.05L24.21 105.97L24.1 105.89L24 105.81L23.9 105.72L23.8 105.63L23.71 105.53L23.62 105.43L23.53 105.32L23.44 105.21L23.36 105.09L23.28 104.97L23.21 104.85L23.13 104.72L23.07 104.59L23 104.45L22.94 104.31L22.89 104.17L22.84 104.02L22.79 103.87L22.75 103.71L22.72 103.56L22.68 103.39L22.66 103.23L22.64 103.06L22.62 102.89L22.62 102.71L22.61 102.54L22.61 18.74L22.62 18.59L22.62 18.44L22.64 18.29L22.66 18.14L22.68 18L22.72 17.85L22.75 17.7L22.79 17.56L22.84 17.42L22.89 17.28L22.94 17.14L23 17L23.07 16.86L23.13 16.73L23.21 16.6L23.28 16.47L23.36 16.35L23.44 16.23L23.53 16.11L23.62 16L23.71 15.89L23.8 15.78L23.9 15.68L24 15.58L24.1 15.49L24.21 15.4L24.32 15.31L24.42 15.24L24.53 15.16L24.65 15.09L24.76 15.03L24.88 14.97L24.99 14.92L25.11 14.88L25.23 14.84L25.35 14.81L25.47 14.78L25.59 14.77L25.71 14.75L25.83 14.75L96.56 14.75L96.68 14.75L96.8 14.77ZM25.83 102.54L96.56 102.54L96.56 34.7L25.83 34.7L25.83 102.54ZM51.55 30.71L96.56 30.71L96.56 18.74L51.55 18.74L51.55 30.71ZM25.83 30.71L48.33 30.71L48.33 18.74L25.83 18.74L25.83 30.71Z" id="b3ZN88Cv4g"></path><path d="M30.65 22.73C29.76 22.73 29.04 23.62 29.04 24.73C29.04 25.83 29.76 26.72 30.65 26.72C31.54 26.72 32.26 25.83 32.26 24.73C32.26 23.62 31.54 22.73 30.65 22.73Z" id="g4Sq3GPCC"></path><path d="M37.08 22.73C36.19 22.73 35.47 23.62 35.47 24.73C35.47 25.83 36.19 26.72 37.08 26.72C37.97 26.72 38.69 25.83 38.69 24.73C38.69 23.62 37.97 22.73 37.08 22.73Z" id="aXQuGuzc"></path><path d="M43.51 22.73C42.62 22.73 41.9 23.62 41.9 24.73C41.9 25.83 42.62 26.72 43.51 26.72C44.4 26.72 45.12 25.83 45.12 24.73C45.12 23.62 44.4 22.73 43.51 22.73Z" id="c1goEhiqVm"></path><path d="M30.65 46.67C29.69 46.67 29.04 45.87 29.04 44.68C29.04 44.68 29.04 44.68 29.04 44.68C29.04 43.48 29.69 42.68 30.65 42.68C32.26 42.68 45.12 42.68 46.73 42.68C47.69 42.68 48.33 43.48 48.33 44.68C48.33 44.68 48.33 44.68 48.33 44.68C48.33 45.87 47.69 46.67 46.73 46.67C43.51 46.67 32.26 46.67 30.65 46.67Z" id="a1pU3UvUPx"></path><path d="M30.65 58.64C29.69 58.64 29.04 57.85 29.04 56.65C29.04 56.65 29.04 56.65 29.04 56.65C29.04 55.45 29.69 54.65 30.65 54.65C33.22 54.65 53.8 54.65 56.37 54.65C57.34 54.65 57.98 55.45 57.98 56.65C57.98 56.65 57.98 56.65 57.98 56.65C57.98 57.85 57.34 58.64 56.37 58.64C51.23 58.64 33.22 58.64 30.65 58.64Z" id="dB1cPAPO9"></path><path d="M53.16 46.67C52.19 46.67 51.55 45.87 51.55 44.68C51.55 44.68 51.55 44.68 51.55 44.68C51.55 43.48 52.19 42.68 53.16 42.68C54.44 42.68 64.73 42.68 66.02 42.68C66.98 42.68 67.62 43.48 67.62 44.68C67.62 44.68 67.62 44.68 67.62 44.68C67.62 45.87 66.98 46.67 66.02 46.67C63.44 46.67 54.44 46.67 53.16 46.67Z" id="bSzcrl57q"></path><path d="M62.8 58.64C61.84 58.64 61.19 57.85 61.19 56.65C61.19 56.65 61.19 56.65 61.19 56.65C61.19 55.45 61.84 54.65 62.8 54.65C63.44 54.65 68.59 54.65 69.23 54.65C70.2 54.65 70.84 55.45 70.84 56.65C70.84 56.65 70.84 56.65 70.84 56.65C70.84 57.85 70.2 58.64 69.23 58.64C67.95 58.64 63.44 58.64 62.8 58.64Z" id="d8IVlTzke"></path><path d="M30.65 70.61C29.69 70.61 29.04 69.82 29.04 68.62C29.04 68.62 29.04 68.62 29.04 68.62C29.04 67.42 29.69 66.62 30.65 66.62C31.29 66.62 36.44 66.62 37.08 66.62C38.05 66.62 38.69 67.42 38.69 68.62C38.69 68.62 38.69 68.62 38.69 68.62C38.69 69.82 38.05 70.61 37.08 70.61C35.79 70.61 31.29 70.61 30.65 70.61Z" id="a2NX5lXxW0"></path><path d="M46.73 70.61C45.76 70.61 45.12 69.82 45.12 68.62C45.12 68.62 45.12 68.62 45.12 68.62C45.12 67.42 45.76 66.62 46.73 66.62C47.05 66.62 49.62 66.62 49.94 66.62C50.91 66.62 51.55 67.42 51.55 68.62C51.55 68.62 51.55 68.62 51.55 68.62C51.55 69.82 50.91 70.61 49.94 70.61C49.3 70.61 47.05 70.61 46.73 70.61Z" id="a69UUHqHL9"></path><path d="M75.66 58.64C74.7 58.64 74.05 57.85 74.05 56.65C74.05 56.65 74.05 56.65 74.05 56.65C74.05 55.45 74.7 54.65 75.66 54.65C76.63 54.65 84.34 54.65 85.31 54.65C86.27 54.65 86.91 55.45 86.91 56.65C86.91 56.65 86.91 56.65 86.91 56.65C86.91 57.85 86.27 58.64 85.31 58.64C83.38 58.64 76.63 58.64 75.66 58.64Z" id="bn8SOyAT4"></path></defs><g><g><g><use xlink:href="#b1lo7zuvLE" opacity="1" fill="#ffffff" fill-opacity="0"></use><g><use xlink:href="#b1lo7zuvLE" opacity="1" fill-opacity="0" stroke="#a434b7" stroke-width="2" stroke-opacity="1"></use></g></g><g><use xlink:href="#b3ZN88Cv4g" opacity="1" fill="#000000" fill-opacity="0"></use><g><use xlink:href="#b3ZN88Cv4g" opacity="1" fill-opacity="0" stroke="#a434b7" stroke-width="1" stroke-opacity="1"></use></g></g><g><use xlink:href="#g4Sq3GPCC" opacity="1" fill="#a434b7" fill-opacity="1"></use><g><use xlink:href="#g4Sq3GPCC" opacity="1" fill-opacity="0" stroke="#000000" stroke-width="1" stroke-opacity="0"></use></g></g><g><use xlink:href="#aXQuGuzc" opacity="1" fill="#a434b7" fill-opacity="1"></use><g><use xlink:href="#aXQuGuzc" opacity="1" fill-opacity="0" stroke="#000000" stroke-width="1" stroke-opacity="0"></use></g></g><g><use xlink:href="#c1goEhiqVm" opacity="1" fill="#a434b7" fill-opacity="1"></use><g><use xlink:href="#c1goEhiqVm" opacity="1" fill-opacity="0" stroke="#000000" stroke-width="1" stroke-opacity="0"></use></g></g><g><use xlink:href="#a1pU3UvUPx" opacity="1" fill="#a434b7" fill-opacity="1"></use></g><g><use xlink:href="#dB1cPAPO9" opacity="1" fill="#a434b7" fill-opacity="1"></use></g><g><use xlink:href="#bSzcrl57q" opacity="1" fill="#a434b7" fill-opacity="1"></use></g><g><use xlink:href="#d8IVlTzke" opacity="1" fill="#a434b7" fill-opacity="1"></use></g><g><use xlink:href="#a2NX5lXxW0" opacity="1" fill="#a434b7" fill-opacity="1"></use></g><g><use xlink:href="#a69UUHqHL9" opacity="1" fill="#a434b7" fill-opacity="1"></use></g><g><use xlink:href="#bn8SOyAT4" opacity="1" fill="#a434b7" fill-opacity="1"></use></g></g></g></svg>
